Flat-Remix-Blue/mimetypes/scalable/application-mathematica.svg

<svg xmlns="http://www.w3.org/2000/svg" xmlns:xlink="http://www.w3.org/1999/xlink" width="36pt" height="36pt" version="1.1" viewBox="0 0 36 36"> <defs> <clipPath id="clip1"> <path d="M 20 2 L 31 2 L 31 13 L 20 13 Z M 20 2"/> </clipPath> <clipPath id="clip2"> <path d="M 20.515625 2.625 L 30.328125 12.4375 L 22.023438 12.4375 C 21.292969 12.4375 20.515625 11.660156 20.515625 10.929688 Z M 20.515625 2.625"/> </clipPath> <image id="image6" width="36" height="36" xlink:href="data:image/png;base64,iVBORw0KGgoAAAANSUhEUgAAACQAAAAkCAYAAADhAJiYAAAABmJLR0QA/wD/AP+gvaeTAAAAmklEQVRYhe3T0QqCQBBG4aOtYEoUvf9Lildltl00C4tkbBeTIP+BAUEYP1YW1Pcqh53B9kbgaVPcwQF0tAmGSrMZ6AKcDQXw+AUVHEAtcAUaewYYgYmC3+cBCkAPnDJQMcoDVNnebgEqQnmAclTz4d0I3P4JStc9AjXvk4qLWQV53LLeEOl05gw4A3dgcPiuUkoppZRSSqk99gLWvSJpuDnlsAAAAABJRU5ErkJggg=="/> </defs> <g> <path style="fill:rgb(83.137%,9.803%,9.803%)" d="M 7.347656 3.152344 C 6.675781 3.152344 6.042969 3.785156 6.042969 4.457031 L 6.042969 31.847656 C 6.042969 32.480469 6.714844 33.152344 7.347656 33.152344 L 28.21875 33.152344 C 28.851562 33.152344 29.523438 32.480469 29.523438 31.847656 L 29.523438 11.632812 L 21.042969 3.152344 Z M 7.347656 3.152344"/> <g clip-path="url(#clip1)"> <g clip-path="url(#clip2)"> <use xlink:href="#image6"/> </g> </g> <path style="fill:rgb(88.235%,36.862%,36.862%)" d="M 21.042969 3.152344 L 29.523438 11.632812 L 22.347656 11.632812 C 21.714844 11.632812 21.042969 10.960938 21.042969 10.328125 Z M 21.042969 3.152344"/> <path style="fill:rgb(100.000%,100.000%,100.000%);stroke-width:0.4;stroke-linecap:square;stroke-linejoin:round;stroke:rgb(83.137%,9.803%,9.803%)" d="M 26.155934 24.893429 L 24.234059 21.351763 L 22.093434 24.846554 L 24.015309 27.679888" transform="matrix(0.75,0,0,0.75,0.0236742,-1.064603)"/> <path style="fill:rgb(100.000%,100.000%,100.000%);stroke-width:0.4;stroke-linecap:square;stroke-linejoin:round;stroke:rgb(83.137%,9.803%,9.803%)" d="M 26.155934 24.898638 L 24.015309 27.685096 L 27.681976 26.138221 L 30.041351 23.351763 Z M 26.155934 24.898638" transform="matrix(0.75,0,0,0.75,0.0236742,-1.064603)"/> <path style="fill:rgb(100.000%,100.000%,100.000%);stroke-width:0.4;stroke-linecap:square;stroke-linejoin:round;stroke:rgb(83.137%,9.803%,9.803%)" d="M 27.687184 26.138221 L 27.640309 30.294471 L 29.692393 27.513221 L 30.041351 23.351763 Z M 27.687184 26.138221" transform="matrix(0.75,0,0,0.75,0.0236742,-1.064603)"/> <path style="fill:rgb(100.000%,100.000%,100.000%);stroke-width:0.4;stroke-linecap:square;stroke-linejoin:round;stroke:rgb(83.137%,9.803%,9.803%)" d="M 27.640309 30.289263 L 30.827809 31.481971 L 33.536143 28.252804 L 29.692393 27.502804 Z M 27.640309 30.289263" transform="matrix(0.75,0,0,0.75,0.0236742,-1.064603)"/> <path style="fill-rule:evenodd;fill:rgb(100.000%,100.000%,100.000%);stroke-width:0.4;stroke:rgb(83.137%,9.803%,9.803%)" d="M 30.822601 31.492388 L 27.635101 30.299679 L 29.952809 33.351763 L 33.619476 34.851763 L 30.822601 31.492388" transform="matrix(0.75,0,0,0.75,0.0236742,-1.064603)"/> <path style="fill:rgb(100.000%,100.000%,100.000%);stroke-width:0.4;stroke-linecap:square;stroke-linejoin:round;stroke:rgb(83.137%,9.803%,9.803%)" d="M 29.958018 33.341346 L 26.286143 34.362179 L 29.650726 35.330929 L 33.624684 34.841346 L 29.947601 33.341346 M 29.947601 33.346554" transform="matrix(0.75,0,0,0.75,0.0236742,-1.064603)"/> <path style="fill-rule:evenodd;fill:rgb(100.000%,100.000%,100.000%);stroke-width:0.4;stroke-linecap:square;stroke-linejoin:round;stroke:rgb(83.137%,9.803%,9.803%)" d="M 29.650726 35.330929 L 26.286143 34.356971 L 26.067393 37.586138 L 29.739268 39.580929 L 29.650726 35.330929" transform="matrix(0.75,0,0,0.75,0.0236742,-1.064603)"/> <path style="fill:rgb(100.000%,100.000%,100.000%);stroke-width:0.4;stroke-linecap:square;stroke-linejoin:round;stroke:rgb(83.137%,9.803%,9.803%)" d="M 24.056976 37.638221 L 24.004893 41.487179 L 26.062184 37.596554 L 26.280934 34.367388 M 24.051768 37.638221" transform="matrix(0.75,0,0,0.75,0.0236742,-1.064603)"/> <path style="fill:rgb(100.000%,100.000%,100.000%);stroke-width:0.4;stroke-linecap:square;stroke-linejoin:round;stroke:rgb(83.137%,9.803%,9.803%)" d="M 22.088226 24.851763 L 18.244476 23.211138 L 20.473643 26.221554 L 24.010101 27.679888 Z M 22.088226 24.851763" transform="matrix(0.75,0,0,0.75,0.0236742,-1.064603)"/> <path style="fill:rgb(100.000%,100.000%,100.000%);stroke-width:0.4;stroke-linecap:square;stroke-linejoin:round;stroke:rgb(83.137%,9.803%,9.803%)" d="M 20.473643 26.221554 L 18.244476 23.216346 L 18.681976 27.549679 L 20.603851 30.028846 M 20.473643 26.221554" transform="matrix(0.75,0,0,0.75,0.0236742,-1.064603)"/> <path style="fill:rgb(100.000%,100.000%,100.000%);stroke-width:0.4;stroke-linecap:square;stroke-linejoin:round;stroke:rgb(83.137%,9.803%,9.803%)" d="M 18.681976 27.549679 L 14.791351 28.258013 L 17.635101 31.221554 L 20.603851 30.023638 Z M 18.681976 27.549679" transform="matrix(0.75,0,0,0.75,0.0236742,-1.064603)"/> <path style="fill:rgb(100.000%,100.000%,100.000%);stroke-width:0.4;stroke-linecap:square;stroke-linejoin:round;stroke:rgb(83.137%,9.803%,9.803%)" d="M 17.635101 31.221554 L 14.312184 34.409054 L 18.155934 33.174679 L 20.603851 30.028846 L 17.629893 31.221554 M 17.629893 31.221554" transform="matrix(0.75,0,0,0.75,0.0236742,-1.064603)"/> <path style="fill:rgb(100.000%,100.000%,100.000%);stroke-width:0.4;stroke-linecap:square;stroke-linejoin:round;stroke:rgb(83.137%,9.803%,9.803%)" d="M 18.161143 33.169471 L 14.312184 34.409054 L 18.728851 35.117388 L 21.916351 34.450721 M 18.161143 33.169471" transform="matrix(0.75,0,0,0.75,0.0236742,-1.064603)"/> <path style="fill:rgb(100.000%,100.000%,100.000%);stroke-width:0.4;stroke-linecap:square;stroke-linejoin:round;stroke:rgb(83.137%,9.803%,9.803%)" d="M 21.916351 34.450721 L 18.728851 35.112179 L 18.030934 39.627804 L 21.963226 37.544471 M 21.916351 34.450721" transform="matrix(0.75,0,0,0.75,0.0236742,-1.064603)"/> <path style="fill-rule:evenodd;fill:rgb(100.000%,100.000%,100.000%);stroke-width:0.4;stroke-linecap:square;stroke-linejoin:round;stroke:rgb(83.137%,9.803%,9.803%)" d="M 21.916351 34.450721 L 21.963226 37.544471 L 24.015309 41.481971 L 24.056976 37.633013 L 21.916351 34.445513" transform="matrix(0.75,0,0,0.75,0.0236742,-1.064603)"/> <path style="fill:rgb(100.000%,100.000%,100.000%);stroke-width:0.4;stroke-linecap:square;stroke-linejoin:round;stroke:rgb(83.137%,9.803%,9.803%)" d="M 24.056976 31.440304 L 27.635101 30.289263 L 27.681976 26.133013 L 24.015309 27.679888 M 24.056976 31.440304" transform="matrix(0.75,0,0,0.75,0.0236742,-1.064603)"/> <path style="fill:rgb(100.000%,100.000%,100.000%);stroke-width:0.4;stroke-linecap:square;stroke-linejoin:round;stroke:rgb(83.137%,9.803%,9.803%)" d="M 27.640309 30.289263 L 24.056976 31.440304 L 26.286143 34.356971 L 29.952809 33.341346 Z M 27.640309 30.289263" transform="matrix(0.75,0,0,0.75,0.0236742,-1.064603)"/> <path style="fill-rule:evenodd;fill:rgb(100.000%,100.000%,100.000%);stroke-width:0.4;stroke:rgb(83.137%,9.803%,9.803%)" d="M 24.062184 31.445513 L 21.916351 34.450721 L 24.062184 37.638221 L 26.286143 34.367388 L 24.062184 31.450721" transform="matrix(0.75,0,0,0.75,0.0236742,-1.064603)"/> <path style="fill:rgb(100.000%,100.000%,100.000%);stroke-width:0.4;stroke-linecap:square;stroke-linejoin:round;stroke:rgb(83.137%,9.803%,9.803%)" d="M 24.056976 31.440304 L 21.916351 34.445513 L 24.056976 37.638221 L 26.280934 34.367388 L 24.056976 31.445513 M 24.056976 31.440304" transform="matrix(0.75,0,0,0.75,0.0236742,-1.064603)"/> <path style="fill-rule:evenodd;fill:rgb(100.000%,100.000%,100.000%);stroke-width:0.4;stroke:rgb(83.137%,9.803%,9.803%)" d="M 18.161143 33.164263 L 21.916351 34.445513 L 24.056976 31.440304 L 20.603851 30.023638 L 18.161143 33.164263" transform="matrix(0.75,0,0,0.75,0.0236742,-1.064603)"/> <path style="fill-rule:evenodd;fill:rgb(100.000%,100.000%,100.000%);stroke-width:0.4;stroke:rgb(83.137%,9.803%,9.803%)" d="M 24.062184 31.445513 L 24.015309 27.679888 L 20.473643 26.216346 L 20.609059 30.023638 L 24.062184 31.440304" transform="matrix(0.75,0,0,0.75,0.0236742,-1.064603)"/> </g> </svg>

<svg width="36pt" height="36pt" version="1.1" viewBox="0 0 36 36" xmlns="http://www.w3.org/2000/svg"><defs><filter id="a" x="-.192" y="-.192" width="1.384" height="1.384" color-interpolation-filters="sRGB"><feGaussianBlur stdDeviation="0.67843748"/></filter></defs><path d="m7.3477 3.1523c-0.67188 0-1.3047 0.63281-1.3047 1.3047v27.391c0 0.63281 0.67188 1.3047 1.3047 1.3047h20.871c0.63281 0 1.3047-0.67188 1.3047-1.3047v-20.215l-8.4805-8.4805z" fill="#d31818"/><path d="m20.668 3.5272 8.4805 8.4805h-7.1758c-0.63281 0-1.3047-0.67187-1.3047-1.3047z" filter="url(#a)" opacity=".2"/><path d="m21.043 3.1523 8.4805 8.4805h-7.1758c-0.63281 0-1.3047-0.67187-1.3047-1.3047z" fill="#e05d5d"/><path transform="matrix(.75 0 0 .75 .023674 -1.0646)" d="m26.156 24.893-1.9219-3.5417-2.1406 3.4948 1.9219 2.8333" fill="#fff" stroke="#d31818" stroke-linecap="square" stroke-linejoin="round" stroke-width=".4"/><path transform="matrix(.75 0 0 .75 .023674 -1.0646)" d="m26.156 24.899-2.1406 2.7865 3.6667-1.5469 2.3594-2.7865zm0 0" fill="#fff" stroke="#d31818" stroke-linecap="square" stroke-linejoin="round" stroke-width=".4"/><path transform="matrix(.75 0 0 .75 .023674 -1.0646)" d="m27.687 26.138-0.046875 4.1562 2.0521-2.7812 0.34896-4.1615zm0 0" fill="#fff" stroke="#d31818" stroke-linecap="square" stroke-linejoin="round" stroke-width=".4"/><path transform="matrix(.75 0 0 .75 .023674 -1.0646)" d="m27.64 30.289 3.1875 1.1927 2.7083-3.2292-3.8438-0.75zm0 0" fill="#fff" stroke="#d31818" stroke-linecap="square" stroke-linejoin="round" stroke-width=".4"/><path transform="matrix(.75 0 0 .75 .023674 -1.0646)" d="m30.823 31.492-3.1875-1.1927 2.3177 3.0521 3.6667 1.5-2.7969-3.3594" fill="#fff" fill-rule="evenodd" stroke="#d31818" stroke-width=".4"/><path transform="matrix(.75 0 0 .75 .023674 -1.0646)" d="m29.958 33.341-3.6719 1.0208 3.3646 0.96875 3.974-0.48958-3.6771-1.5m0 0.005208" fill="#fff" stroke="#d31818" stroke-linecap="square" stroke-linejoin="round" stroke-width=".4"/><path transform="matrix(.75 0 0 .75 .023674 -1.0646)" d="m29.651 35.331-3.3646-0.97396-0.21875 3.2292 3.6719 1.9948-0.088542-4.25" fill="#fff" fill-rule="evenodd" stroke="#d31818" stroke-linecap="square" stroke-linejoin="round" stroke-width=".4"/><path transform="matrix(.75 0 0 .75 .023674 -1.0646)" d="m24.057 37.638-0.052083 3.849 2.0573-3.8906 0.21875-3.2292m-2.2292 3.2708" fill="#fff" stroke="#d31818" stroke-linecap="square" stroke-linejoin="round" stroke-width=".4"/><path transform="matrix(.75 0 0 .75 .023674 -1.0646)" d="m22.088 24.852-3.8438-1.6406 2.2292 3.0104 3.5365 1.4583zm0 0" fill="#fff" stroke="#d31818" stroke-linecap="square" stroke-linejoin="round" stroke-width=".4"/><path transform="matrix(.75 0 0 .75 .023674 -1.0646)" d="m20.474 26.222-2.2292-3.0052 0.4375 4.3333 1.9219 2.4792m-0.13021-3.8073" fill="#fff" stroke="#d31818" stroke-linecap="square" stroke-linejoin="round" stroke-width=".4"/><path transform="matrix(.75 0 0 .75 .023674 -1.0646)" d="m18.682 27.55-3.8906 0.70833 2.8438 2.9635 2.9688-1.1979zm0 0" fill="#fff" stroke="#d31818" stroke-linecap="square" stroke-linejoin="round" stroke-width=".4"/><path transform="matrix(.75 0 0 .75 .023674 -1.0646)" d="m17.635 31.222-3.3229 3.1875 3.8438-1.2344 2.4479-3.1458-2.974 1.1927m0 0" fill="#fff" stroke="#d31818" stroke-linecap="square" stroke-linejoin="round" stroke-width=".4"/><path transform="matrix(.75 0 0 .75 .023674 -1.0646)" d="m18.161 33.169-3.849 1.2396 4.4167 0.70833 3.1875-0.66667m-3.7552-1.2812" fill="#fff" stroke="#d31818" stroke-linecap="square" stroke-linejoin="round" stroke-width=".4"/><path transform="matrix(.75 0 0 .75 .023674 -1.0646)" d="m21.916 34.451-3.1875 0.66146-0.69792 4.5156 3.9323-2.0833m-0.046875-3.0938" fill="#fff" stroke="#d31818" stroke-linecap="square" stroke-linejoin="round" stroke-width=".4"/><path transform="matrix(.75 0 0 .75 .023674 -1.0646)" d="m21.916 34.451 0.046875 3.0938 2.0521 3.9375 0.041667-3.849-2.1406-3.1875" fill="#fff" fill-rule="evenodd" stroke="#d31818" stroke-linecap="square" stroke-linejoin="round" stroke-width=".4"/><path transform="matrix(.75 0 0 .75 .023674 -1.0646)" d="m24.057 31.44 3.5781-1.151 0.046875-4.1562-3.6667 1.5469m0.041667 3.7604" fill="#fff" stroke="#d31818" stroke-linecap="square" stroke-linejoin="round" stroke-width=".4"/><path transform="matrix(.75 0 0 .75 .023674 -1.0646)" d="m27.64 30.289-3.5833 1.151 2.2292 2.9167 3.6667-1.0156zm0 0" fill="#fff" stroke="#d31818" stroke-linecap="square" stroke-linejoin="round" stroke-width=".4"/><path transform="matrix(.75 0 0 .75 .023674 -1.0646)" d="m24.062 31.446-2.1458 3.0052 2.1458 3.1875 2.224-3.2708-2.224-2.9167" fill="#fff" fill-rule="evenodd" stroke="#d31818" stroke-width=".4"/><path transform="matrix(.75 0 0 .75 .023674 -1.0646)" d="m24.057 31.44-2.1406 3.0052 2.1406 3.1927 2.224-3.2708-2.224-2.9219m0-0.005209" fill="#fff" stroke="#d31818" stroke-linecap="square" stroke-linejoin="round" stroke-width=".4"/><path transform="matrix(.75 0 0 .75 .023674 -1.0646)" d="m18.161 33.164 3.7552 1.2812 2.1406-3.0052-3.4531-1.4167-2.4427 3.1406" fill="#fff" fill-rule="evenodd" stroke="#d31818" stroke-width=".4"/><path transform="matrix(.75 0 0 .75 .023674 -1.0646)" d="m24.062 31.446-0.046875-3.7656-3.5417-1.4635 0.13542 3.8073 3.4531 1.4167" fill="#fff" fill-rule="evenodd" stroke="#d31818" stroke-width=".4"/></svg>
